X:129
T:Atkins Menagerie (Air from). CJF.129
T:Air from Atkins Menagerie. CJF.129
R:Air
S:C.J.Fox MS, 1829/33, Beverley,E.Yorks.
N:I have added the leading d2 to allow the tune to play correctly.
N:The asterisked note is g2 in MS. – PJH.
B:Kidson Coll.Mitchell Lib.M1805
O:England
A:East Yorkshire
Z:vmp.P J Headford 200
M:2/4
L:1/16
Q:1/8=140
K:G
d2|”>”g4″>”^g4|”>”a4″>”^a4|b2a2 g2f2|\
g2g2g2 Bc|dedc d2g2|b4 a4|!
^gaga =gfed|g2d’2d’2 Bc|dedc d2g2|\
“>”b4″>”^g4|a2a2 gfef|g4 z2:|!
|:d’d’|d’2f2g2^g2|aba^g a2 d’d’|\
d’2f2 g2^g2|aba^g a2 d’d’|!
d’2f2 g2^g2|a2f2 a4|g2g2 e2e2|\
f4z4|agfe a2a2|f4.b2(ge)|!
.a2(fd) .A2(Bc)|dedc d2g2|b4 g4|\
^gaga =gfed|g2b2 d’2 Bc|dedc d2g2|!
b4g4|fac’a gfef|”*”g4 z2H:||:”Trio”d2|c’2b2 a2g2|!
{g}f2e2 f2d2|.g2.a2 .b2.c’2|d’2c’e’ d’2b2|\
.c’2b2 a2g2|f2(eg) f2d2|g2(fa) g2(fa)|g4” Da Capo”z2:|

